src/assets/duotone/Link21.svg

<svg width="24" height="24" viewBox="0 0 24 24"  xmlns="http://www.w3.org/2000/svg">
<path d="M19.0698 14.24C18.7798 14.53 18.3198 14.53 18.0398 14.24C17.7498 13.95 17.7498 13.49 18.0398 13.21C20.0398 11.21 20.0398 7.95998 18.0398 5.96998C16.0398 3.97998 12.7898 3.96998 10.7998 5.96998C8.80978 7.96998 8.79978 11.22 10.7998 13.21C11.0898 13.5 11.0898 13.96 10.7998 14.24C10.5098 14.53 10.0498 14.53 9.76979 14.24C7.19979 11.67 7.19979 7.48998 9.76979 4.92998C12.3398 2.36998 16.5198 2.35998 19.0798 4.92998C21.6398 7.49998 21.6398 11.67 19.0698 14.24Z" />
<path opacity="0.4" d="M19.07 4.92994C21.64 7.49994 21.64 11.6699 19.07 14.2399C18.19 15.1199 17.11 15.6999 15.98 15.9799C16.51 13.8199 15.93 11.4499 14.24 9.75994C12.55 8.06994 10.18 7.48994 8.02002 8.01994C8.30002 6.88994 8.87002 5.80994 9.76002 4.92994C12.33 2.35994 16.5 2.35994 19.07 4.92994Z" />
<path d="M4.93022 9.75998C5.22022 9.46998 5.68022 9.46998 5.96022 9.75998C6.25022 10.05 6.25022 10.51 5.96022 10.79C3.96022 12.79 3.96022 16.04 5.96022 18.03C7.96022 20.02 11.2102 20.03 13.2002 18.03C15.1902 16.03 15.2002 12.78 13.2002 10.79C12.9102 10.5 12.9102 10.04 13.2002 9.75998C13.4902 9.46998 13.9502 9.46998 14.2302 9.75998C16.8002 12.33 16.8002 16.51 14.2302 19.07C11.6602 21.63 7.48022 21.64 4.92022 19.07C2.36022 16.5 2.36022 12.33 4.93022 9.75998Z" />
<path opacity="0.5" d="M14.2399 9.76C15.9299 11.45 16.5099 13.82 15.9799 15.98C15.6999 17.11 15.1199 18.19 14.2399 19.07C11.6699 21.64 7.49994 21.64 4.92994 19.07C2.35994 16.5 2.35994 12.33 4.92994 9.76C5.80994 8.87 6.88994 8.3 8.01994 8.02C10.1799 7.49 12.5499 8.07 14.2399 9.76Z" />
</svg>

<?xml version="1.0" encoding="UTF-8"?>
<svg width="24" height="24" viewBox="0 0 24 24" xmlns="http://www.w3.org/2000/svg">
 <path d="m19.07 14.24c-0.29 0.29-0.75 0.29-1.03 0-0.29-0.29-0.29-0.75 0-1.03 2-2 2-5.25 0-7.24s-5.25-2-7.24 0c-1.99 2-2 5.25 0 7.24 0.29 0.29 0.29 0.75 0 1.03-0.29 0.29-0.75 0.29-1.03 0-2.57-2.57-2.57-6.75 0-9.31 2.57-2.56 6.75-2.57 9.31 0s2.56 6.74-0.01 9.31z"/>
 <path d="m19.07 4.9299c2.57 2.57 2.57 6.74 0 9.31-0.88 0.88-1.96 1.46-3.09 1.74 0.53-2.16-0.05-4.53-1.74-6.22-1.69-1.69-4.06-2.27-6.22-1.74 0.28-1.13 0.85-2.21 1.74-3.09 2.57-2.57 6.74-2.57 9.31 0z" opacity=".4"/>
 <path d="m4.9302 9.76c0.29-0.29 0.75-0.29 1.03 0 0.29 0.29002 0.29 0.75002 0 1.03-2 2-2 5.25 0 7.24s5.25 2 7.24 0 2-5.25 0-7.24c-0.29-0.29-0.29-0.75 0-1.03 0.29-0.29 0.75-0.29 1.03 0 2.57 2.57 2.57 6.75 0 9.31s-6.75 2.57-9.31 0-2.56-6.74 0.01-9.31z"/>
 <path d="m14.24 9.76c1.69 1.69 2.27 4.06 1.74 6.22-0.28 1.13-0.86 2.21-1.74 3.09-2.57 2.57-6.74 2.57-9.31 0s-2.57-6.74 0-9.31c0.88-0.89 1.96-1.46 3.09-1.74 2.16-0.53 4.53 0.05 6.22 1.74z" opacity=".5"/>
</svg>
